!!!!SEGMENT: pl-kk--kk-i-3--054_anonim--alleluia-o-maria-ancilla.krn
!!!cenid: 15xx:713
!!!COM: Anonim
!!!COM-rismid: pe30004985
!!!CDT:
!!!CNT:
!!!OTL: Alleluia, O Maria ancilla
!!!PDT:
!!!AGN:
!!!SMS-siglum: PL-Kk
!!!SMS-shelfmark: Kk.I.3
!!!SMS-shelfwork: 054 W
!!!SMS-variant:
!!!SMS-altvar:
!!!NIFC-rismid: 1001145493
!!!URL-scan: http://repozytorium.nifc.pl/skany/pl-kk-nut--i-3
!!!ONB-nifc: UWAGA: Discantus (s. 151r-152r, skan 0153-0154), Tenor (s. 111v-112v, skan 0284-0285), Bassus (s. 145r-146r, skan 0448-0449)
**kern	**text	**kern	**text	**kern	**text
*part3	*part3	*part2	*part2	*part1	*part1
*staff3	*staff3	*staff2	*staff2	*staff1	*staff1
*I"[Bassus]	*	*I"[Tenor]	*	*I"[Discantus]	*
*I'B	*	*I'T	*	*I'S	*
*ICvox	*	*ICvox	*	*ICvox	*
*Ibass	*	*Itenor	*	*Isoprn	*
*clefF4	*	*clefC4	*	*clefC3	*
*k[]	*	*k[]	*	*k[]	*
*C:	*	*C:	*	*C:	*
*M2/1	*	*M2/1	*	*M2/1	*
*met(c)	*	*met(c)	*	*met(c)	*
=1	=1	=1	=1	=1	=1
!	!	!	!	!LO:TX:t=P:problem:brak źródła tekstowego w Internecie	!
*	*	*lig	*	*	*
1E	Al-	1E	Al-	2.e\	Al-
.	.	.	.	4d\	.
2.A\	-le-	1F	.	2c\	.
.	.	.	.	2d\	.
8G\L	.	.	.	.	.
8F\J	.	.	.	.	.
*	*	*Xlig	*	*	*
=2	=2	=2	=2	=2	=2
2E\	.	1G	-le-	1e	-le-
1C	.	.	.	.	.
*	*	*lig	*	*	*
.	.	1E	.	2c\	-lu-
2AA/	.	.	.	2.e\	-ia
=3	=3	=3	=3	=3	=3
1D	.	1F	.	.	.
.	.	.	.	4d\	.
.	.	.	.	1d	.
*	*	*Xlig	*	*	*
*	*	*lig	*	*	*
2AA/	.	1E	.	.	.
2C/	.	.	.	2c\	.
=4	=4	=4	=4	=4	=4
1BB	-lu-	1D	.	1d	.
*	*	*Xlig	*	*	*
*	*	*lig	*	*	*
1AA	-ia	1E	.	2r	.
.	.	.	.	2c\	.
=5	=5	=5	=5	=5	=5
*	*ij	*	*	*	*
2A\	Al-	1D	.	2d\	.
2F\	-le-	.	.	1f	.
!LO:SIC:v:t=custos G	!	!	!	!	!
*	*	*Xlig	*	*	*
2G\	.	1C	.	.	.
!LO:LB:g=original	!	!	!	!	!
1A	.	.	.	2e\	.
=6	=6	=6	=6	=6	=6
*	*	*lig	*	*	*
!	!	!	!	!LO:SIC:v:t=custos f	!
.	.	1D	-lu-	2d\	.
!	!	!	!	!LO:LB:g=original	!
4G\	.	.	.	2.f\	.
4F\	.	.	.	.	.
2E\	.	1E	.	.	.
.	.	.	.	4e\	.
2C/	.	.	.	1e	.
*	*	*Xlig	*	*	*
=7	=7	=7	=7	=7	=7
1D	.	1F	.	.	.
.	.	.	.	2d\	.
2AA/	.	1E	.	2e\	.
2C/	.	.	.	2c\	.
=8	=8	=8	=8	=8	=8
1BB	-lu-	1D	.	1d	.
1AA	-ia	1E;	-ia	2c/	.
.	.	.	.	2e\	.
*	*Xij	*	*	*	*
=9	=9	=9	=9	=9	=9
*	*	*lig	*	*	*
2r	.	1B	.	2d\	.
*lig	*ij	*	*	*	*
1E	Al-	.	.	1g	.
.	.	1c	.	.	.
1F	-le-	.	.	1f	.
*Xlig	*	*Xlig	*	*	*
=10	=10	=10	=10	=10	=10
*	*	*lig	*	*	*
.	.	1d	.	.	.
1G	.	.	.	1d	.
.	.	1c	.	.	.
1E	.	.	.	2e\	.
*	*	*Xlig	*	*	*
=11	=11	=11	=11	=11	=11
.	.	1c	.	2c/	.
2F\	.	.	.	2.f\	.
2D/	.	1B	.	.	.
.	.	.	.	4e\	.
!LO:SIC:v:t=custos F	!	!	!	!	!
2E\	.	.	.	1e	.
!LO:LB:g=original	!	!	!	!	!
=12	=12	=12	=12	=12	=12
1F	.	1A	.	.	.
.	.	.	.	2d\	.
!	!	!	!	!LO:SIC:v:t=custos g	!
2E\	.	1G	.	2e\	.
!	!	!	!	!LO:LB:g=original	!
2C/	-lu-	.	.	1g	.
=13	=13	=13	=13	=13	=13
*	*	*lig	*	*	*
1D	-ia	1D	.	.	.
*	*Xij	*	*	*	*
.	.	.	.	2f\	.
2r	.	1G	.	2d\	.
*	*ij	*	*	*	*
2GG/	Al-	.	.	1e	.
*	*	*Xlig	*	*	*
=14	=14	=14	=14	=14	=14
!	!	!LO:SIC:v:t=custos E	!	!	!
2AA/	-le-	1F	.	.	.
!	!	!LO:LB:g=original	!	!	!
2BB/	.	.	.	2d\	.
2C/	.	1E	.	2e\	.
2AA/	.	.	.	2c/	.
=15	=15	=15	=15	=15	=15
1BB	.	1D	.	1d	.
2.AA/	.	[1El	.	2c/	.
.	.	.	.	1A	.
4BB/	.	.	.	.	.
=16	=16	=16	=16	=16	=16
2C/	.	0E_	.	.	.
2GG/	.	.	.	2B/	.
1AA	-lu-	.	.	1c	.
=17	=17	=17	=17	=17	=17
!LO:SIC:v:t=custos AA	!	!	!	!	!
0E	-ia	0E]	.	0B	.
!LO:LB:g=original	!	!	!	!	!
*	*Xij	*	*	*	*
=18||	=18||	=18||	=18||	=18||	=18||
*lig	*	*lig	*	*lig	*
1AA	O	1E	O	1e	O
*col**Xcol	*	*	*	*	*
2.D\	.	1F	.	1d	.
*Xlig	*	*Xlig	*	*Xlig	*
4C/	.	.	.	.	.
=19	=19	=19	=19	=19	=19
*	*	*lig	*	*	*
4AA/	.	1E	.	4c/	.
4BB/	.	.	.	4d\	.
2C/	.	.	.	4e\	.
.	.	.	.	4c/	.
!	!	!	!	!LO:SIC:v:t=custos c	!
1BB	.	1D	.	1d	.
!	!	!	!	!LO:LB:g=original	!
*	*	*Xlig	*	*	*
=20	=20	=20	=20	=20	=20
1AA	.	1E	.	2c/	.
.	.	.	.	1A	.
*	*	*lig	*	*	*
1r	.	1B	.	.	.
.	.	.	.	2G/	Ma-
=21	=21	=21	=21	=21	=21
2r	.	1c	.	1A	-ri-
2AA/	O	.	.	.	.
*	*	*Xlig	*	*	*
1E	.	1B	.	2E/	-a
.	.	.	.	1e	.
=22	=22	=22	=22	=22	=22
*lig	*	*	*	*	*
!	!	!LO:SIC:v:t=custos B	!	!	!
1F	Ma-	1A	.	.	.
!	!	!LO:LB:g=original	!	!	!
.	.	.	.	2d\	o
1E	-ri-	1B	.	2e\	.
.	.	.	.	1g	.
*Xlig	*	*	*	*	*
=23	=23	=23	=23	=23	=23
0D	-a	1d	Ma-	.	.
.	.	.	.	4f\	.
.	.	.	.	4e\	.
*	*	*lig	*	*	*
.	.	1d	-ri-	1f	.
=24	=24	=24	=24	=24	=24
2r	.	1B	.	1g	.
2G\	O	.	.	.	.
*	*	*Xlig	*	*	*
*	*	*lig	*	*	*
2E\	.	1c	.	2g\	.
2F\	.	.	.	2.f\	Ma-
=25	=25	=25	=25	=25	=25
2D/	Ma-	1B	.	.	.
.	.	.	.	4e\	-ri-
2E\	-ri-	.	.	1e	-a
*	*	*Xlig	*	*	*
!LO:SIC:v:t=custos E	!	!	!	!	!
*	*	*lig	*	*	*
1F	.	1A	.	.	.
.	.	.	.	2d\	.
!LO:LB:g=original	!	!	!	!	!
=26	=26	=26	=26	=26	=26
1E	-a	1G	.	00e	.
*	*	*Xlig	*	*	*
*	*	*lig	*	*	*
2AA/	O	1A	.	.	.
1A	Ma-	.	.	.	.
=27	=27	=27	=27	=27	=27
.	.	1B	.	.	.
2G\	-ri-	.	.	.	.
*	*	*Xlig	*	*	*
*	*	*lig	*	*	*
2A\	.	1c	.	.	.
2A\	-a	.	.	.	.
=28	=28	=28	=28	=28	=28
!	!	!	!	!LO:SIC:v:t=custos e	!
0E	.	1B	.	1r	.
!	!	!	!	!LO:LB:g=original	!
*	*	*Xlig	*	*	*
!	!	!LO:SIC:v:t=custos e	!	!	!
.	.	1B	-a	2.e\	an-
.	.	.	.	4d\	.
!	!	!LO:LB:g=original	!	!	!
=29	=29	=29	=29	=29	=29
*	*	*lig	*	*	*
2r	.	1c	an-	4c\	.
.	.	.	.	4B/	.
2AA/	an-	.	.	1A	-cil-
*lig	*	*	*	*	*
1E	-cil-	1B	.	.	.
.	.	.	.	2G/	-la
*	*	*Xlig	*	*	*
=30	=30	=30	=30	=30	=30
*	*	*lig	*	*	*
1F	.	1A	.	4A/	.
.	.	.	.	4B/	.
.	.	.	.	4c\	.
.	.	.	.	4d\	.
*Xlig	*	*	*	*	*
1E	-la	1G	.	1e	.
*	*	*Xlig	*	*	*
=31	=31	=31	=31	=31	=31
*	*	*lig	*	*	*
1AA	.	1E	.	4c/	.
.	.	.	.	4d\	.
.	.	.	.	4e\	.
.	.	.	.	4c/	.
*lig	*	*	*	*	*
1D	.	1F	.	4d\	.
.	.	.	.	4e\	.
.	.	.	.	2.f\	.
*	*	*Xlig	*	*	*
=32	=32	=32	=32	=32	=32
1C	.	1G	.	.	.
.	.	.	.	4e\	.
.	.	.	.	1e	.
*Xlig	*	*lig	*	*	*
1D	.	1F	-ci-	.	.
.	.	.	.	2d\	.
=33	=33	=33	=33	=33	=33
!LO:SIC:v:t=custos D	!	!	!	!	!
1AA	.	1E	.	1e	.
!LO:LB:g=original	!	!	!	!	!
*	*	*Xlig	*	*	*
*	*	*lig	*	*	*
!	!	!	!	!LO:SIC:v:t=custos e	!
1D	.	1D	-lla	1f	ſu-
!	!	!	!	!LO:LB:g=original	!
=34	=34	=34	=34	=34	=34
1E	.	1G	.	2e\	-mil-
.	.	.	.	2c/	.
*	*	*Xlig	*	*	*
*	*	*lig	*	*	*
1D	.	1A	.	2d\	-li-
.	.	.	.	2.f\	-ma
=35	=35	=35	=35	=35	=35
1E	.	1G,	.	.	.
.	.	.	.	4e\	.
*	*	*	*	*	*ij
.	.	.	.	1e	ſu-
*	*	*Xlig	*	*	*
!	!	!LO:SIC:v:t=custos B	!	!	!
1F	.	1A	hu-	.	.
.	.	.	.	2d\	-mi-
!	!	!LO:LB:g=original	!	!	!
=36	=36	=36	=36	=36	=36
2.E\	.	1B	-mil-	1e	-li-
4D/	.	.	.	.	.
*	*	*lig	*	*	*
2C/	.	1c	-li-	1.e	-ma
2AA/	.	.	.	.	.
*	*	*	*	*	*Xij
=37	=37	=37	=37	=37	=37
1E	.	1B	.	.	.
*	*	*	*	*	*ij
.	.	.	.	2e\	ſu-
*	*	*Xlig	*	*	*
2AA/	.	1A	.	0e	-mil-
1A	ſu-	.	.	.	.
=38	=38	=38	=38	=38	=38
.	.	1B,	-ma	.	.
2G\	.	.	.	.	.
*	*	*lig	*	*	*
2F\	-mil-	1d	in	1f	-li-
2D/	-li-	.	.	.	.
=39	=39	=39	=39	=39	=39
!LO:SIC:v:t=custos AA	!	!	!	!	!
1E	.	1B	.	0e	-ma
!LO:LB:g=original	!	!	!	!	!
*	*	*Xlig	*	*	*Xij
*	*	*lig	*	*	*
2AA/	-ma	1c	.	.	.
2C/	.	.	.	.	.
=40	=40	=40	=40	=40	=40
2D/	.	1B	.	2r	.
2E\	an-	.	.	2e\	ſu-
*	*	*Xlig	*	*	*
*	*	*lig	*	*	*
2F\	-cil-	1A	.	2c/	-mil-
!	!	!	!	!LO:SIC:v:t=custos e	!
2D/	-la	.	.	2f\	-li-
!	!	!	!	!LO:LB:g=original	!
=41	=41	=41	=41	=41	=41
*lig	*	*	*	*	*
1E	.	1G	.	2e\	-ma
.	.	.	.	1g	in
*	*	*Xlig	*	*	*
*	*	*lig	*	*	*
1C	.	1E	.	.	.
.	.	.	.	4f\	.
.	.	.	.	4e\	.
*Xlig	*	*	*	*	*
=42	=42	=42	=42	=42	=42
!	!	!LO:SIC:v:t=custos G	!	!	!
1D	ſu-	1F	.	2d\	.
!	!	!LO:LB:g=original	!	!	!
.	.	.	.	2.f\	.
*lig	*	*Xlig	*	*	*
1C	-mil-	1G	.	.	.
.	.	.	.	4e\	an-
.	.	.	.	1e	-guſ-
=43	=43	=43	=43	=43	=43
*	*	*lig	*	*	*
1D	-li-	1F	.	.	.
.	.	.	.	2d\	-tijs
*Xlig	*	*	*	*	*
1AA	-ma	1E	.	1e	.
*	*	*Xlig	*	*	*
=44	=44	=44	=44	=44	=44
2r	.	1D	.	1f	.
1A	an-	.	.	.	.
*	*	*lig	*	*	*
.	.	1E	.	2e\	in
2G\	-cil-	.	.	2.e\	an-
=45	=45	=45	=45	=45	=45
2.A\	-la	1F	.	.	.
.	.	.	.	4d\	-guſ-
.	.	.	.	1d	-tijs
8G\L	.	.	.	.	.
8F\J	.	.	.	.	.
!LO:SIC:v:t=custos E	!	!	!	!	!
*	*	*Xlig	*	*	*
*	*	*lig	*	*	*
1E	.	1G	.	.	.
.	.	.	.	2c/	.
!LO:LB:g=original	!	!	!	!	!
=46	=46	=46	=46	=46	=46
2D/	.	1F	.	2d\	.
2D/	ſu-	.	.	2f\	.
!	!	!	!	!LO:SIC:v:t=custos e	!
*	*	*Xlig	*	*	*
*	*	*lig	*	*	*
2C/	-mil-	1G	.	2e\	.
!	!	!	!	!LO:LB:g=original	!
2BB/	-li-	.	.	2d\	.
=47	=47	=47	=47	=47	=47
1AA	-ma	1A	.	2f\	.
.	.	.	.	4e\	ſuc-
.	.	.	.	4d\	.
*	*	*Xlig	*	*	*
*	*	*lig	*	*	*
1E	.	1G	.	2.e\	-cu-
.	.	.	.	4f\	.
=48	=48	=48	=48	=48	=48
0r	.	1E	.	2g\	.
.	.	.	.	1e	.
*	*	*Xlig	*	*	*
*	*	*lig	*	*	*
.	.	1F	.	.	.
.	.	.	.	2d\	.
=49	=49	=49	=49	=49	=49
!	!	!LO:SIC:v:t=custos G	!	!	!
1G	in	1E	.	2e\	-re
!	!	!LO:LB:g=original	!	!	!
.	.	.	.	1g	.
*	*	*Xlig	*	*	*
*	*	*lig	*	*	*
2E\	an-	1G	an-	.	.
1G	.	.	.	2e\	ſuc-
=50	=50	=50	=50	=50	=50
.	.	1E	.	1g	-cur-
4F\	-gu-	.	.	.	.
4E\	.	.	.	.	.
*	*	*Xlig	*	*	*
*	*	*lig	*	*	*
1D	-ſtijs	1F	.	2f\	-re
.	.	.	.	2d\	.
=51	=51	=51	=51	=51	=51
*lig	*	*	*	*	*
1C	.	1E	.	2e\	.
!	!	!	!	!LO:SIC:v:t=custos f	!
.	.	.	.	1g	.
!	!	!	!	!LO:LB:g=original	!
*	*	*Xlig	*	*	*
*	*	*lig	*	*	*
1D	.	1D	.	.	.
.	.	.	.	2f\	.
*Xlig	*	*	*	*	*
=52	=52	=52	=52	=52	=52
2AA/	.	1C	.	1e	.
2C/	.	.	.	.	.
*	*	*Xlig	*	*	*
!LO:SIC:v:t=custos AA	!	!	!	!	!
1BB	.	1D	-gu-	1d	.
!LO:LB:g=original	!	!	!	!	!
=53	=53	=53	=53	=53	=53
*lig	*	*lig	*	*	*
1AA	.	1E	-ſei-	2c/	.
.	.	.	.	2.e\	mi-
1D	.	1F	.	.	.
.	.	.	.	4d\	-ſe-
.	.	.	.	1d	-ris
*Xlig	*	*Xlig	*	*	*
=54	=54	=54	=54	=54	=54
2AA/	.	1E	-is	.	.
2AA/	.	.	.	2c/	.
*lig	*	*	*	*	*
1BB	.	1D	ſuc-	1d	.
=55	=55	=55	=55	=55	=55
*	*	*lig	*	*	*
1C	.	1E	-cur-	2G/	.
.	.	.	.	2.g\	.
*Xlig	*	*	*	*	*
!	!	!LO:SIC:v:t=custos G	!	!	!
1D	.	1F	.	.	.
!	!	!LO:LB:g=original	!	!	!
.	.	.	.	4f\	.
.	.	.	.	1f	.
*	*	*Xlig	*	*	*
=56	=56	=56	=56	=56	=56
*	*	*lig	*	*	*
1C	ſuc-	1G	.	.	.
.	.	.	.	2e\	.
*lig	*	*	*	*	*
1D	-cur-	1F	.	1f	.
*	*	*Xlig	*	*	*
=57	=57	=57	=57	=57	=57
*	*	*lig	*	*	*
1E	-re	1G	.	2.e\	.
.	.	.	.	4d\	ma-
*Xlig	*	*	*	*	*
2AA/	.	1A	.	4c/	.
.	.	.	.	4B/	.
*	*ij	*	*	*	*
!	!	!	!	!LO:SIC:v:t=custos d	!
2.D/	ſuc-	.	.	1A	-ter
*	*	*Xlig	*	*	*
!	!	!	!	!LO:LB:g=original	!
=58	=58	=58	=58	=58	=58
*	*	*lig	*	*	*
.	.	1D	-re	.	.
4C/	.	.	.	.	.
4BB/	.	.	.	2.d\	ma-
4AA/	.	.	.	.	.
1GG	-cur-	1G	.	.	.
.	.	.	.	4c/	.
.	.	.	.	4B/	.
.	.	.	.	4A/	.
*	*	*Xlig	*	*	*
=59	=59	=59	=59	=59	=59
*	*	*lig	*	*	*
2.G\	.	1E	mi-	2G/	-ter
*	*	*	*	*	*ij
.	.	.	.	2.g\	ma-
4F\	.	.	.	.	.
4E\	.	1C	.	.	.
!LO:SIC:v:t=custos C	!	!	!	!	!
4D/	.	.	.	4f\	.
!LO:LB:g=original	!	!	!	!	!
1C	.	.	.	2e\	.
*	*	*Xlig	*	*	*
=60	=60	=60	=60	=60	=60
*	*	*lig	*	*	*
.	.	1D	-ſe-	1d	.
2BB/	-re	.	.	.	.
*	*Xij	*	*	*	*
1C	mi-	1E	.	2c/	.
.	.	.	.	2.e\	.
*	*	*Xlig	*	*	*
=61	=61	=61	=61	=61	=61
*	*	*lig	*	*	*
2.D/	-ſe-	1F	-ris	.	.
.	.	.	.	4d\	.
.	.	.	.	1d	.
4D/	.	.	.	.	.
!	!	!LO:SIC:v:t=custos B	!	!	!
1AA	-ris	1E	.	.	.
.	.	.	.	2c/	.
*	*	*Xlig	*	*	*
!	!	!LO:LB:g=original	!	!	!
=62	=62	=62	=62	=62	=62
*	*	*lig	*	*	*
2r	.	1B	ma-	2d\	-ter
*lig	*	*	*	*	*Xij
1E	ma-	.	.	1g	ma-
.	.	1c	.	.	.
1F	.	.	.	1f	.
*Xlig	*	*Xlig	*	*	*
=63	=63	=63	=63	=63	=63
*	*	*lig	*	*	*
.	.	1d	.	.	.
1G	-ter	.	.	1d	-ter
.	.	1B	.	.	.
1E	.	.	.	2e\	p(u)-
*	*	*Xlig	*	*	*
=64	=64	=64	=64	=64	=64
*	*	*lig	*	*	*
!	!	!	!	!LO:SIC:v:t=custos f	!
.	.	1c	.	2c/	-(r)ij-
!	!	!	!	!LO:LB:g=original	!
2F\	p(u)-	.	.	2.f\	.
2D/	-(r)ijſ-	1B	.	.	.
.	.	.	.	4e\	.
2E\	-ſi-	.	.	1e	-ſſi-
*	*	*Xlig	*	*	*
=65	=65	=65	=65	=65	=65
*	*	*lig	*	*	*
1F	-ma	1A	-ter	.	.
.	.	.	.	2d\	.
2E\	.	1G	.	2e\	-ma
2C/	.	.	.	1g	ma-
*	*	*Xlig	*	*	*
=66	=66	=66	=66	=66	=66
!LO:SIC:v:t=custos GG	!	!	!	!	!
*	*	*lig	*	*	*
1D	.	1D	p(u)-	.	.
!LO:LB:g=original	!	!	!	!	!
.	.	.	.	2f\	.
2r	.	1G	-(r)ij-	2d\	-ter
2GG/	ma-	.	.	1e	p(u)-
*	*	*Xlig	*	*	*
=67	=67	=67	=67	=67	=67
*	*	*lig	*	*	*
2AA/	.	1F	.	.	.
2BB/	-ter	.	.	2d\	.
2C/	p(u)-	1E	.	2e\	.
2AA/	-(r)ijſ-	.	.	2c/	-(r)ijſ-
*	*	*Xlig	*	*	*
=68	=68	=68	=68	=68	=68
1BB	-ſi-	1D	-ſſi-	1d	ſi-
!LO:N:vis=0	!	!LO:N:vis=0	!	!LO:N:vis=0	!
1AA	-ma	1E	-ma	1c	-ma
==	==	==	==	==	==
*-	*-	*-	*-	*-	*-
!!!system-decoration: [(s1,s2,s3)]
!!!ENC:Anastazja Marusiak
!!!END:2022-01-19
!!!ENC:Jan Barakat
!!!END:2022-01-25
!!!RDF**kern: l = terminal long
